X:1
T:Title
%%score 1 ( 2 3 )
L:1/8
Q:1/4=100
M:4/4
K:Eb
V:1 treble nm="Strings 1, Treble"
V:2 bass nm="Strings 1, Bass"
V:3 bass 
V:1
 z4 z2 EF | [EG]2 [EG]2 [B,F]2 [B,E]2 | [EG]2 [EB]2 [Ec]2 [Ee]2 | [EB]3 [Ec] [EB]2 [EG]2 | %4
 [EG]2 [DF]2 [DF]2 [DB]2 | [EG]2 [EG]2 [B,F]2 [B,E]2 | [EG]2 [EB]2 [Ec]4 | [Ee]4 [Ac][GB][EG]E | %8
 [EG]2 [DF]2 E4 | [GB]4 [Ac][GB][EG][B,F] | [B,E]2 [CE]2 [B,E]3 [B,E] | [DF]2 [DF]2 [DB]3 [DF] | %12
 [EG]2 [Ec]2 [EB]4 | [GB]4 [Ac][GB][EG][B,F] | [B,E]2 [CE]2 [B,E]4 | [Ee]4 [Ec][GB][EG]E | %16
 [EG]2 [DF]2 E2[Q:1/4=100] z2[Q:1/4=12] |] %17
V:2
 z4 z2 G,A, | [E,B,]2 [E,B,]2 [E,A,]2 [E,G,]2 | [E,B,]2 [E,G,]2 A,2 [C,A,]2 | %3
w: 1.~When~ *|dark~ and~ storm y~|is~ the~ way,~ When~|
 [E,G,]3 [E,A,] [E,G,]2 [E,B,]2 | [B,,B,]2 [B,,B,]2 [B,,B,]2 [B,,B,]2 | %5
w: sin~ be sets~ on~|eve ry~ hand,~ There's~|
 [E,B,]2 [E,B,]2 [E,A,]2 [E,G,]2 | [E,B,]2 [E,G,]2 A,4 | [A,C]4 [E,E][E,E][E,B,][E,G,] | %8
w: One~ who'll~ be~ your~|friend~ and~ stay�~|Tell~ Je sus,~ He~ will~|
 [B,,B,]2 [B,,A,]2 [E,G,]4 | [E,E]4 [E,E][E,E][E,B,][E,A,] | [E,G,]2 [E,A,]2 [E,G,]3 [E,G,] | %11
w: un der stand.~|||
 [B,,B,]2 [B,,B,]2 [B,,F,]3 [B,,B,] | [E,B,]2 [E,A,]2 [E,G,]4 | [E,E]4 [E,E][E,E][E,B,][E,A,] | %14
w: |||
 [E,G,]2 [E,A,]2 [E,G,]4 | [G,B,]4 [A,E][E,E][E,B,][E,G,] | [B,,B,]2 [B,,A,]2 [E,G,]2 z2 |] %17
w: |||
V:3
 z4 z2 E,2 | x8 | x8 | x8 | x8 | x8 | x8 | x8 | x8 | x8 | x8 | x8 | x8 | x8 | x8 | x8 | x8 |] %17

